X:1
T:The Gypsy Princess
R:barndance
M:4/4
L:1/8
K:A
AB|:c3c c2c2|BcBA FEEF|A2Ac e2ec|eafe cBAB|
|c2F2 c2F2|BcBA F2 (3EFG|A2Ac efec|1 ~B2A2 AEAB:|2 ~B2A2 ABcd|]
|:e3e e2e2|BccB Acde|f3f f2f2|BccB ABcd|
|e3e e2e2|BccB AB (3cde|a3f ecBd|1 ~c2A2 ABcd:|2 ~c2A2 AEAB|]